X:2
T:Trip to Sauchiehall Street
C:Jenna Reid (of Filska)
D:Filska "Time and Tide"
S:http://www.shetland-music.com/mp3down.htm
Z:Steve Wyrick  scots-l 2002-7-31
Z:Bunjie's Dilemma Set, Tune #2
L:1/8
%Q:460
M:C
R:Reel
K:D
D|D2FA dedA|=cBBA AGGA|D2FA dedA|fBBA B2{c}d2|!
D2FA dedA|=cBBA AGGA|D2FA dedA|fBBA B3||!
B|:=c3c BAGB|Aaaf g2fg|{g}a2ag e2=cA|GEGA B4|!
=c3c BAGB|Aaaf g2fg|afge fdec|(3ddd dBA2d2:|!
